X: 020721
T: Barry's Fancy
S: "The Piper's Dream" (P. McNulty)
Z: B.Black
L: 1/8
M: 4/4
R: reel
K: G
(3ded cd BG (3GFG | EAAG A2 GE | DGBG dGBG |\
(3ABA GA BGGB |
d2 dc dedB | AGAB A2 GE | DGBG dGBG |\
A2 GA BG G2 :|
Bd (3d^cd edBd | eaab agef | gage dGBd |\
gfga bg g2 |
(3gag (3ege (3ded Bd|eaab agef|gage dGBd|\
gfga bg g2 :|
